dist/img/about/telegram.svg

<svg id="elW456tkaPA1" xmlns="http://www.w3.org/2000/svg" xmlns:xlink="http://www.w3.org/1999/xlink" viewBox="0 0 68 68" shape-rendering="geometricPrecision" text-rendering="geometricPrecision">
<style><![CDATA[
#elW456tkaPA4_to {animation: elW456tkaPA4_to__to 1000ms linear infinite normal forwards}@keyframes elW456tkaPA4_to__to { 0% {transform: translate(34.912173px,33.017529px)} 50% {transform: translate(36.865695px,31.128641px)} 100% {transform: translate(34.000016px,33.999988px)}} #elW456tkaPA5_to {animation: elW456tkaPA5_to__to 1000ms linear infinite normal forwards}@keyframes elW456tkaPA5_to__to { 0% {transform: translate(13.810091px,53.863063px)} 50% {transform: translate(17.587928px,50.009257px)} 100% {transform: translate(13.810091px,53.863063px)}}
]]></style>
<g clip-path="url(#elW456tkaPA9)"><g><g id="elW456tkaPA4_to" transform="translate(34.912173,33.017529)"><path d="M65.3643,2.571c-.625-.62499-1.5346-.84067-2.3737-.56297L18.1169,16.8606c-1.2226.4046-.5968,2.2958.626,1.8911L63.6165,3.89921c.3124-.03267.4522.10717.4196.41954L45.0002,61.8315c-.1482.4478-.7725.4852-.9733.0583L36.3401,45.5364l3.6467-5.8862c.6783-1.0947-1.0152-2.1438-1.6935-1.049l-3.6093,5.826-9.0045-.7626L50.588,18.756L41.0564,34.1414c-.6783,1.0947,1.0152,2.1439,1.6934,1.049L56.808,12.4985c.542-.8732-.5007-1.913-1.3728-1.3703L22.4508,31.6468L6.03902,23.9101c-.42645-.201-.38873-.8248.05883-.9731l7.65765-2.5345c1.2227-.4046.5967-2.2958-.6259-1.8911L5.47193,21.0459c-2.1139.6996-2.29651,3.7167-.28235,4.6662L21.5699,33.4339l.8964,11.1222c.0387.4816.4298.869.9088.9125l11.1768.9466l7.6721,16.322c.9427,2.0054,3.9683,1.8328,4.6674-.2798L65.9273,4.9448c.2778-.83921.062-1.74868-.563-2.3738v0ZM24.2789,42.2478l-.636-7.8921-.0847-1.0516L49.1303,17.3966L24.2789,42.2478Z" transform="translate(-34.912173,-33.017529)" fill="#685ed6"/></g><g id="elW456tkaPA5_to" transform="translate(13.810091,53.863063)"><g transform="translate(-16.264784,-52.92905)"><path d="M19.5063,47.8883c-.3952-.3828-1.0258-.3726-1.4084.0225L0.283634,66.3077c-.893928.923.532027,2.3143,1.431006,1.3859L19.5289,49.2968c.3828-.3952.3727-1.0258-.0226-1.4085v0Z" transform="translate(2.454571-.93403)" fill="#685ed6"/><path d="M25.9022,47.9152L11.8224,62.5776c-.8895.9262.5408,2.3128,1.4368,1.3799L27.3391,49.2951c.892-.929-.5447-2.3087-1.4369-1.3799v0Z" transform="translate(2.454571-.93403)" fill="#685ed6"/><path d="M4.31934,56.3827c.26163,0,.52299-.1026.71862-.3062L19.1177,41.4142c.8921-.929-.5448-2.3087-1.4369-1.3799L3.60098,54.6967c-.5736.5973-.10598,1.686.71836,1.686v0Z" transform="translate(2.454571-.93403)" fill="#685ed6"/></g></g></g><clipPath id="elW456tkaPA9"><rect width="68" height="68" rx="0" ry="0" fill="#fff"/></clipPath></g></svg>

<svg width="68" height="68" viewBox="0 0 68 68" fill="none" xmlns="http://www.w3.org/2000/svg">
<g clip-path="url(#clip0_1_1352)">
<path d="M65.3643 2.571C64.7393 1.94601 63.8297 1.73033 62.9906 2.00803L18.1169 16.8606C16.8943 17.2652 17.5201 19.1564 18.7429 18.7517L63.6165 3.89921C63.9289 3.86654 64.0687 4.00638 64.0361 4.31875L45.0002 61.8315C44.852 62.2793 44.2277 62.3167 44.0269 61.8898L36.3401 45.5364L39.9868 39.6502C40.6651 38.5555 38.9716 37.5064 38.2933 38.6012L34.684 44.4272L25.6795 43.6646L50.588 18.756L41.0564 34.1414C40.3781 35.2361 42.0716 36.2853 42.7498 35.1904L56.808 12.4985C57.35 11.6253 56.3073 10.5855 55.4352 11.1282L22.4508 31.6468L6.03902 23.9101C5.61257 23.7091 5.65029 23.0853 6.09785 22.937L13.7555 20.4025C14.9782 19.9979 14.3522 18.1067 13.1296 18.5114L5.47193 21.0459C3.35803 21.7455 3.17542 24.7626 5.18958 25.7121L21.5699 33.4339L22.4663 44.5561C22.505 45.0377 22.8961 45.4251 23.3751 45.4686L34.5519 46.4152L42.224 62.7372C43.1667 64.7426 46.1923 64.57 46.8914 62.4574L65.9273 4.9448C66.2051 4.10559 65.9893 3.19612 65.3643 2.571V2.571ZM24.2789 42.2478L23.6429 34.3557L23.5582 33.3041L49.1303 17.3966L24.2789 42.2478Z" fill="#685ED6"/>
<path d="M19.5063 47.8883C19.1111 47.5055 18.4805 47.5157 18.0979 47.9108L0.283634 66.3077C-0.610294 67.2307 0.815661 68.622 1.71464 67.6936L19.5289 49.2968C19.9117 48.9016 19.9016 48.271 19.5063 47.8883V47.8883Z" fill="#685ED6"/>
<path d="M25.9022 47.9152L11.8224 62.5776C10.9329 63.5038 12.3632 64.8904 13.2592 63.9575L27.3391 49.2951C28.2311 48.3661 26.7944 46.9864 25.9022 47.9152V47.9152Z" fill="#685ED6"/>
<path d="M4.31934 56.3827C4.58097 56.3827 4.84233 56.2801 5.03796 56.0765L19.1177 41.4142C20.0098 40.4852 18.5729 39.1055 17.6808 40.0343L3.60098 54.6967C3.02738 55.294 3.495 56.3827 4.31934 56.3827V56.3827Z" fill="#685ED6"/>
</g>
<defs>
<clipPath id="clip0_1_1352">
<rect width="68" height="68" fill="white"/>
</clipPath>
</defs>
</svg>
